assets/svg/edit.svg

<?xml version="1.0" encoding="UTF-8"?>
<svg width="1000px" height="1000px" viewBox="0 0 1000 1000" version="1.1" xmlns="http://www.w3.org/2000/svg" xmlns:xlink="http://www.w3.org/1999/xlink">
    <!-- Generator: sketchtool 52.4 (67378) - http://www.bohemiancoding.com/sketch -->
    <title>edit</title>
    <desc>Created with sketchtool.</desc>
    <g id="新版图标" stroke="none" stroke-width="1" fill="none" fill-rule="evenodd">
        <g id="edit" fill="#323233" fill-rule="nonzero">
            <g id="圆角-编辑">
                <path d="M767.103013,300.316222 L688.535593,221.748802 L649.251883,261.032512 L727.819303,339.599932 L767.103013,300.316222 Z M806.386723,339.599932 L767.103013,378.883642 L727.819303,418.167352 L570.684462,261.032512 L609.968173,221.748802 L649.251883,182.465092 L688.182039,143.534935 C688.377301,143.339673 688.693884,143.339673 688.889146,143.534935 L845.31688,299.962668 C845.512142,300.15793 845.512142,300.474513 845.31688,300.669775 L806.386723,339.599932 Z M531.400752,300.316222 L688.535593,457.451062 L413.549622,732.437032 L257.9886,763.549237 C242.945274,766.557902 228.311243,756.801882 225.302578,741.758555 C224.583343,738.162384 224.583343,734.459386 225.302578,730.863214 L256.414782,575.302192 L531.400752,300.316222 Z M307.592642,602.691752 L287.950787,700.901027 L386.160063,681.259172 L609.968173,457.451062 L531.400752,378.883642 L307.592642,602.691752 Z M111.611111,833.333333 L888.388889,833.333333 C888.665031,833.333333 888.888889,833.557191 888.888889,833.833333 L888.888889,888.388889 C888.888889,888.665031 888.665031,888.888889 888.388889,888.888889 L111.611111,888.888889 C111.334969,888.888889 111.111111,888.665031 111.111111,888.388889 L111.111111,833.833333 C111.111111,833.557191 111.334969,833.333333 111.611111,833.333333 Z" id="Combined-Shape"></path>
            </g>
        </g>
    </g>
</svg>

<svg width="1000" height="1000" xmlns="http://www.w3.org/2000/svg"><path d="M767.103 300.316l-78.567-78.567-39.284 39.284 78.567 78.567 39.284-39.284zm39.284 39.284l-39.284 39.284-39.284 39.283-157.135-157.134 39.284-39.284 39.284-39.284 38.93-38.93a.5.5 0 0 1 .707 0l156.428 156.428a.5.5 0 0 1 0 .707l-38.93 38.93zM531.4 300.316l157.135 157.135L413.55 732.437l-155.561 31.112c-15.044 3.009-29.678-6.747-32.686-21.79-.72-3.597-.72-7.3 0-10.896l31.112-155.56L531.4 300.315zM307.593 602.692L287.95 700.9l98.21-19.642 223.807-223.808-78.567-78.567-223.808 223.808zM111.61 833.333H888.39a.5.5 0 0 1 .5.5v54.556a.5.5 0 0 1-.5.5H111.61a.5.5 0 0 1-.5-.5v-54.556a.5.5 0 0 1 .5-.5z" fill="#323233" fill-rule="nonzero"/></svg>
